svg/fluentui-system-icons/ic_fluent_contact_card_ribbon_24_regular.svg

<svg width="24" height="24" viewBox="0 0 24 24" fill="none" xmlns="http://www.w3.org/2000/svg">
<path d="M19.75 4C20.9926 4 22 5.00736 22 6.25V11.7578C21.5506 11.457 21.044 11.235 20.5 11.1115V6.25C20.5 5.83579 20.1642 5.5 19.75 5.5H4.25C3.83579 5.5 3.5 5.83579 3.5 6.25V17.7546C3.5 18.1688 3.83579 18.5046 4.25 18.5046H16V20.0046H4.25C3.00736 20.0046 2 18.9972 2 17.7546V6.25C2 5.00736 3.00736 4 4.25 4H19.75ZM13.2523 12.9961H15.7604C15.459 13.4454 15.2364 13.952 15.1124 14.4961H13.2523C12.8381 14.4961 12.5023 14.1604 12.5023 13.7461C12.5023 13.3664 12.7844 13.0526 13.1505 13.003L13.2523 12.9961ZM9.75 12.5C10.1642 12.5 10.5 12.8358 10.5 13.25V13.7427L10.4921 13.8513C10.3293 14.9642 9.39767 15.5009 7.99995 15.5009C6.60213 15.5009 5.67048 14.9637 5.50787 13.8501L5.5 13.7418V13.25C5.5 12.8358 5.83579 12.5 6.25 12.5H9.75ZM8 8.50218C8.82841 8.50218 9.49997 9.17374 9.49997 10.0022C9.49997 10.8306 8.82841 11.5021 8 11.5021C7.17159 11.5021 6.50003 10.8306 6.50003 10.0022C6.50003 9.17374 7.17159 8.50218 8 8.50218ZM13.2523 9.5H17.75C18.1642 9.5 18.5 9.83579 18.5 10.25C18.5 10.6297 18.2178 10.9435 17.8518 10.9932L17.75 11H13.2523C12.8381 11 12.5023 10.6642 12.5023 10.25C12.5023 9.8703 12.7844 9.55651 13.1505 9.50685L13.2523 9.5ZM23 15.5C23 17.433 21.433 19 19.5 19C17.567 19 16 17.433 16 15.5C16 13.567 17.567 12 19.5 12C21.433 12 23 13.567 23 15.5ZM17 19.2422V22.2859C17 22.9184 17.7648 23.2352 18.212 22.7879L19.5 21.5L20.788 22.7879C21.2352 23.2352 22 22.9184 22 22.2859V19.2422C21.285 19.7208 20.4251 20 19.5 20C18.5749 20 17.715 19.7208 17 19.2422Z" fill="#212121"/>
</svg>

<svg xmlns="http://www.w3.org/2000/svg" width="24" height="24"><path d="M19.75 4A2.25 2.25 0 0 1 22 6.25v5.508a4.468 4.468 0 0 0-1.5-.646V6.25a.75.75 0 0 0-.75-.75H4.25a.75.75 0 0 0-.75.75v11.505c0 .414.336.75.75.75H16v1.5H4.25A2.25 2.25 0 0 1 2 17.755V6.25A2.25 2.25 0 0 1 4.25 4h15.5Zm-6.498 8.996h2.508c-.301.45-.524.956-.648 1.5h-1.86a.75.75 0 0 1-.102-1.493l.102-.007ZM9.75 12.5a.75.75 0 0 1 .75.75v.493l-.008.108c-.163 1.113-1.094 1.65-2.492 1.65s-2.33-.537-2.492-1.65l-.008-.11v-.491a.75.75 0 0 1 .75-.75h3.5ZM8 8.502a1.5 1.5 0 1 1 0 3 1.5 1.5 0 0 1 0-3Zm5.252.998h4.498a.75.75 0 0 1 .102 1.493L17.75 11h-4.498a.75.75 0 0 1-.102-1.493l.102-.007Zm9.748 6a3.5 3.5 0 1 1-7 0 3.5 3.5 0 0 1 7 0Zm-6 3.742v3.044a.71.71 0 0 0 1.212.502L19.5 21.5l1.288 1.288A.71.71 0 0 0 22 22.286v-3.044a4.48 4.48 0 0 1-2.5.758 4.48 4.48 0 0 1-2.5-.758Z"/></svg>
